!!!OTL: RUNDGESANG UND GERSTENSAFT
!!!ARE: Europa, Mitteleuropa, Deutschland
!!!SCT: B0556
!!!YEM: Copyright 1995, estate of Helmut Schaffrath.
**kern
*ICvox
*Ivox
*M2/4
*k[b-e-]
*B-:
=1
{8.f
16g
8f
8e-
=2
8d
8f
4b-}
=3
{8cc
8cc
8a
8f
=4
8f
8dd
4b-}
=5
{8.f
16g
8f
8e-
=6
8d
8f
4b-}
=7
{8cc
8cc
8a
8f
=8
8f
8dd
4b-}
=9
{8cc
8cc
8ff
8ff
=10
8dd
8dd
4b-}
=11
{8cc
8cc
8a
8f
=12
8f
8dd
8b-
8dd
=13
4cc
8a}
{8f
=14
8f
8dd
4b-
=15
8cc
8cc
8ff
8ff
=16
4b-
4r}
==
!!!AGN: Studenten -, Trink - Lied, Rund - Gesang
!!!ONB: ESAC (Essen Associative Code) Database: BOEHME
!!!AMT: simple duple
!!!AIN: vox
!!!EED: Helmut Schaffrath
!!!EEV: 1.0
*-
